packages/icons/web/thumb_up_small.svg

<svg width="24" height="24" viewBox="0 0 24 24" fill="none" xmlns="http://www.w3.org/2000/svg">
<path fill-rule="evenodd" clip-rule="evenodd" d="M13.3161 9.19997V6.79999C13.3161 5.80588 12.4972 5 11.4871 5L9.04837 10.4V17L15.9255 16.9999C16.5335 17.0067 17.0537 16.5716 17.1448 15.9799L17.9862 10.58C18.0399 10.2319 17.9355 9.87815 17.7008 9.61248C17.466 9.3468 17.1246 9.19599 16.7668 9.19997H13.3161ZM9.04837 16.9999H7.21935C6.54592 16.9999 6 16.4627 6 15.7999V11.6C6 10.9372 6.54592 10.4 7.21935 10.4H9.04837V16.9999Z" stroke="#212933" stroke-width="2" stroke-linecap="round" stroke-linejoin="round"/>
</svg>

<svg width="24" height="24" fill="none" xmlns="http://www.w3.org/2000/svg">
    <path clip-rule="evenodd" d="M13.316 9.2V6.8c0-.994-.819-1.8-1.829-1.8l-2.439 5.4V17h6.877a1.214 1.214 0 001.22-1.02l.841-5.4a1.187 1.187 0 00-.285-.968 1.228 1.228 0 00-.934-.412h-3.45zM9.048 17H7.22A1.21 1.21 0 016 15.8v-4.2c0-.663.546-1.2 1.22-1.2h1.828V17z" stroke="currentColor" stroke-width="2" stroke-linecap="round" stroke-linejoin="round"/>
</svg>
